images/icons.svg/Client-two.svg

<svg width="168" height="88" viewBox="0 0 168 88" fill="none" xmlns="http://www.w3.org/2000/svg">
<g id="Client 2">
<rect id="Rectangle 9" x="0.5" y="0.5" width="167" height="87" rx="3.5" stroke="#8E8F99"/>
<g id="Logo ">
<g id="group">
<path id="Union" fill-rule="evenodd" clip-rule="evenodd" d="M82.1136 21.9345H81.977C81.7671 21.9218 81.5571 21.9167 81.3471 21.9116H81.3471H81.3269H80.8918C80.4946 21.9116 80.0898 21.9218 79.6876 21.9421C79.6573 21.9399 79.6269 21.9399 79.5966 21.9421C75.9522 22.1486 72.3817 23.0595 69.0805 24.6249L68.6479 24.8334V46.9746L69.6598 46.6313C70.5477 46.3261 71.4938 46.0515 72.4728 45.7972C75.1193 45.1178 77.8367 44.7567 80.568 44.7216V47.6306C80.2062 47.6332 79.8546 47.6434 79.503 47.6612H79.4195C77.3175 47.7765 75.2317 48.0967 73.1913 48.6173C70.6072 49.2643 68.1143 50.2357 65.7716 51.5086V23.1119C68.2047 21.6928 70.8253 20.6269 73.5556 19.946C75.9527 19.3271 78.4169 19.0093 80.8918 19H81.3193C81.8303 19.0127 82.3287 19.0356 82.7967 19.0712C84.0297 19.1578 85.2528 19.3526 86.4521 19.6535V22.5168C85.2874 22.2455 84.1032 22.067 82.9105 21.9828C82.8863 21.9808 82.8621 21.9787 82.8379 21.9767C82.5911 21.9556 82.344 21.9345 82.1136 21.9345ZM87.1528 24.8614C87.7877 24.9097 88.4455 24.9326 89.1108 24.9326C91.7125 24.9231 94.3031 24.5908 96.8239 23.9434C99.4068 23.294 101.899 22.3218 104.241 21.0496V48.9402C101.807 50.3585 99.1853 51.4243 96.4546 52.1061C94.0571 52.7227 91.5931 53.0395 89.1184 53.0496C87.2433 53.0647 85.3737 52.8443 83.553 52.3935V24.3223C83.983 24.4215 84.4257 24.513 84.876 24.5893C85.6147 24.7139 86.3939 24.8054 87.1528 24.8614ZM101.347 25.0775L100.335 25.4183C99.4042 25.7311 98.4657 26.0108 97.5221 26.26C94.7749 26.966 91.9514 27.3281 89.1158 27.3382C88.4556 27.3382 87.8485 27.3204 87.2616 27.2822L86.4546 27.2288V47.3178V50.0057L87.1477 50.0667C87.7903 50.1227 88.4531 50.1506 89.1209 50.1506C91.3544 50.1412 93.5781 49.8533 95.7412 49.2937C97.5223 48.8469 99.2552 48.2243 100.914 47.4348L101.347 47.2263V25.0775Z" fill="#8E8F99"/>
<g id="Group 5">
<path id="Vector" d="M67.7371 61.2124C67.5917 61.0615 67.4163 60.943 67.2224 60.8646C67.0284 60.7862 66.8203 60.7496 66.6114 60.7572C66.3888 60.7542 66.1678 60.7957 65.9613 60.8793C65.7719 60.9547 65.5998 61.068 65.4553 61.2124C65.3125 61.3572 65.2013 61.5304 65.129 61.721C65.0497 61.9207 65.0101 62.1341 65.0126 62.3491V66.1431C65.0036 66.4104 65.0546 66.6764 65.1619 66.9212C65.2514 67.1156 65.3807 67.2889 65.5413 67.4298C65.693 67.5575 65.871 67.6495 66.0625 67.6994C66.2469 67.7512 66.4376 67.7777 66.6291 67.7782C66.8404 67.7803 67.0495 67.7351 67.2413 67.646C67.4309 67.563 67.6028 67.4438 67.7473 67.295C67.8881 67.1476 68.0005 66.9752 68.0786 66.7864C68.1597 66.5951 68.201 66.3892 68.2001 66.1812V65.7566H67.2084V66.0948C67.2114 66.2103 67.1916 66.3252 67.1502 66.433C67.1179 66.5137 67.0688 66.5866 67.006 66.6466C66.9446 66.6962 66.8742 66.7334 66.7986 66.7559C66.7316 66.7782 66.6617 66.7902 66.5912 66.7915C66.5026 66.8018 66.413 66.7885 66.3312 66.7527C66.2495 66.717 66.1786 66.6602 66.1257 66.5881C66.0322 66.4356 65.9864 66.2585 65.9942 66.0795V62.5423C65.988 62.3462 66.0297 62.1515 66.1156 61.9753C66.1671 61.8952 66.2399 61.8313 66.3258 61.7908C66.4117 61.7503 66.5071 61.7349 66.6013 61.7464C66.6868 61.7434 66.7717 61.7612 66.8488 61.7984C66.9259 61.8356 66.9929 61.8911 67.044 61.96C67.155 62.1057 67.213 62.2852 67.2084 62.4686V62.7966H68.19V62.4101C68.1919 62.1831 68.1507 61.9578 68.0685 61.7464C67.9953 61.5476 67.8825 61.3659 67.7371 61.2124Z" fill="#8E8F99"/>
<path id="Vector_2" d="M73.6289 61.1691C73.3127 60.9021 72.9136 60.7546 72.5007 60.7521C72.2987 60.7529 72.0984 60.7891 71.9087 60.8589C71.7161 60.9279 71.5384 61.0332 71.3851 61.1691C71.2208 61.3168 71.0897 61.498 71.0005 61.7006C70.9006 61.9323 70.8515 62.183 70.8563 62.4355V66.0744C70.8495 66.3304 70.8987 66.5847 71.0005 66.8195C71.0903 67.0151 71.2215 67.1887 71.3851 67.328C71.5367 67.4688 71.7147 67.5777 71.9087 67.6485C72.0984 67.7183 72.2987 67.7544 72.5007 67.7553C72.7027 67.7549 72.9031 67.7187 73.0926 67.6485C73.29 67.5767 73.4719 67.468 73.6289 67.328C73.7871 67.1861 73.9145 67.013 74.0033 66.8195C74.1051 66.5847 74.1544 66.3304 74.1475 66.0744V62.4355C74.1524 62.183 74.1032 61.9323 74.0033 61.7006C73.9151 61.5001 73.7878 61.3194 73.6289 61.1691ZM73.166 66.0744C73.1743 66.1714 73.1609 66.269 73.1268 66.3601C73.0926 66.4512 73.0386 66.5334 72.9687 66.6008C72.8377 66.7106 72.6725 66.7708 72.5019 66.7708C72.3313 66.7708 72.1662 66.7106 72.0352 66.6008C71.9652 66.5334 71.9112 66.4512 71.8771 66.3601C71.8429 66.269 71.8295 66.1714 71.8379 66.0744V62.4355C71.8295 62.3385 71.8429 62.2409 71.8771 62.1498C71.9112 62.0587 71.9652 61.9764 72.0352 61.9091C72.1662 61.7993 72.3313 61.7391 72.5019 61.7391C72.6725 61.7391 72.8377 61.7993 72.9687 61.9091C73.0386 61.9764 73.0926 62.0587 73.1268 62.1498C73.1609 62.2409 73.1743 62.3385 73.166 62.4355V66.0744Z" fill="#8E8F99"/>
<path id="Vector_3" d="M81.3673 67.6994V60.8107H80.4136L79.1614 64.4572H79.1437L77.8813 60.8107H76.9377V67.6994H77.9218V63.5087H77.9395L78.9033 66.4712H79.3941L80.3655 63.5087H80.3832V67.6994H81.3673Z" fill="#8E8F99"/>
<path id="Vector_4" d="M86.9581 61.2937C86.8065 61.1237 86.6153 60.9943 86.4015 60.9173C86.1712 60.8424 85.9302 60.8063 85.6881 60.8105H84.226V67.6993H85.2075V65.0089H85.7134C86.0197 65.0228 86.3244 64.958 86.5988 64.8207C86.822 64.6968 87.0081 64.515 87.1377 64.2943C87.2512 64.1111 87.3277 63.9071 87.3628 63.6942C87.4014 63.435 87.4192 63.173 87.4159 62.911C87.4255 62.5802 87.3932 62.2495 87.3198 61.9269C87.2543 61.6885 87.1299 61.4706 86.9581 61.2937ZM86.4521 63.3941C86.4479 63.5188 86.4168 63.6412 86.361 63.7527C86.3049 63.8586 86.2162 63.9434 86.1081 63.9942C85.9627 64.0593 85.8041 64.0889 85.6451 64.0807H85.1974V61.7387H85.7033C85.8557 61.7312 86.0075 61.7609 86.146 61.8251C86.2475 61.8834 86.3281 61.9724 86.3762 62.0794C86.4299 62.2004 86.4591 62.331 86.4622 62.4634C86.4622 62.6084 86.4622 62.7609 86.4622 62.9211C86.4622 63.0813 86.4723 63.2466 86.4622 63.3941H86.4521Z" fill="#8E8F99"/>
<path id="Vector_5" d="M91.6077 60.8107H90.8032L89.2854 67.6994H90.2669L90.5553 66.2194H91.8935L92.1819 67.6994H93.1635L91.6077 60.8107ZM90.702 65.2811L91.1852 62.784H91.2029L91.6836 65.2811H90.702Z" fill="#8E8F99"/>
<path id="Vector_6" d="M97.9497 64.9607H97.932L96.4496 60.8107H95.506V67.6994H96.4875V63.557H96.5078L98.0079 67.6994H98.9312V60.8107H97.9497V64.9607Z" fill="#8E8F99"/>
<path id="Vector_7" d="M103.948 60.8107L103.158 63.5494H103.138L102.349 60.8107H101.309L102.657 64.7878V67.6994H103.639V64.7878L104.987 60.8107H103.948Z" fill="#8E8F99"/>
<path id="Vector_8" d="M65 69.6445H65.4731V70.9719H65.7943V69.6445H66.2649V69.3724H65V69.6445Z" fill="#8E8F99"/>
<path id="Vector_9" d="M68.9767 69.3724L68.3569 70.9719H68.6984L68.83 70.6083H69.4675L69.6041 70.9719H69.9532L69.3182 69.3724H68.9767ZM68.9261 70.3387L69.1437 69.7462L69.3612 70.3387H68.9261Z" fill="#8E8F99"/>
<path id="Vector_10" d="M72.9079 70.3821H73.2773V70.5881C73.1694 70.6746 73.0358 70.722 72.8978 70.7229C72.8333 70.7265 72.7689 70.7145 72.7099 70.688C72.6509 70.6614 72.5991 70.6211 72.5588 70.5703C72.474 70.4485 72.4322 70.3017 72.4399 70.1533C72.4399 69.7973 72.5942 69.6193 72.9003 69.6193C72.9809 69.6112 73.0617 69.6325 73.128 69.6791C73.1944 69.7257 73.2419 69.7947 73.2621 69.8735L73.5783 69.8125C73.51 69.4997 73.2849 69.3421 72.9003 69.3421C72.6947 69.3366 72.4947 69.4103 72.3413 69.5481C72.2607 69.6276 72.1983 69.7239 72.1586 69.8302C72.1188 69.9365 72.1026 70.0502 72.1111 70.1634C72.1017 70.3823 72.1749 70.5966 72.316 70.7636C72.3943 70.8444 72.4892 70.9071 72.594 70.9475C72.6988 70.9879 72.8111 71.0049 72.9231 70.9975C73.1734 71.0045 73.4165 70.9133 73.6011 70.7432V70.1126H72.9079V70.3821Z" fill="#8E8F99"/>
<path id="Vector_11" d="M76.9226 69.3724H76.5988V70.9719H77.7194V70.6998H76.9226V69.3724Z" fill="#8E8F99"/>
<path id="Vector_12" d="M80.3175 69.3724H79.9937V70.9719H80.3175V69.3724Z" fill="#8E8F99"/>
<path id="Vector_13" d="M83.6365 70.4405L82.9813 69.3724H82.6676V70.9719H82.9686V69.9268L83.6112 70.9719H83.9325V69.3724H83.6365V70.4405Z" fill="#8E8F99"/>
<path id="Vector_14" d="M86.6368 70.2675H87.4337V69.9954H86.6368V69.6445H87.4944V69.3724H86.313V70.9719H87.5273V70.6998H86.6368V70.2675Z" fill="#8E8F99"/>
<path id="Vector_15" d="M93.9122 70.0031H93.2823V69.3724H92.9611V70.9719H93.2823V70.2726H93.9122V70.9719H94.2335V69.3724H93.9122V70.0031Z" fill="#8E8F99"/>
<path id="Vector_16" d="M96.9302 70.2675H97.7296V69.9954H96.9302V69.6445H97.7903V69.3724H96.6089V70.9719H97.8206V70.6998H96.9302V70.2675Z" fill="#8E8F99"/>
<path id="Vector_17" d="M101.023 70.2676C101.302 70.2244 101.443 70.0769 101.443 69.8226C101.451 69.7546 101.441 69.6856 101.413 69.623C101.386 69.5603 101.342 69.5063 101.286 69.4666C101.141 69.3938 100.98 69.3614 100.818 69.3725H100.14V70.972H100.462V70.3032H100.525C100.593 70.299 100.662 70.3112 100.725 70.3388C100.772 70.3678 100.811 70.4079 100.839 70.4558L101.188 70.9644H101.572L101.377 70.6516C101.291 70.4972 101.17 70.3656 101.023 70.2676ZM100.699 70.0464H100.462V69.6446H100.715C100.825 69.6357 100.936 69.6486 101.041 69.6827C101.064 69.7034 101.083 69.7291 101.095 69.7579C101.107 69.7867 101.113 69.8179 101.111 69.8492C101.11 69.8804 101.101 69.911 101.087 69.9385C101.072 69.966 101.051 69.9899 101.026 70.0082C100.92 70.0406 100.81 70.0535 100.699 70.0464Z" fill="#8E8F99"/>
<path id="Vector_18" d="M104.11 70.2675H104.906V69.9954H104.11V69.6445H104.97V69.3724H103.786V70.9719H105V70.6998H104.11V70.2675Z" fill="#8E8F99"/>
</g>
</g>
</g>
</g>
</svg>

<svg xmlns="http://www.w3.org/2000/svg" width="168" height="88" fill="none"><rect width="167" height="87" x=".5" y=".5" stroke="#8E8F99" rx="3.5"/><g fill="#8E8F99"><path fill-rule="evenodd" d="M82.114 21.934h-.137a17.43 17.43 0 0 0-.63-.022h-.455c-.397 0-.802.01-1.204.03a.628.628 0 0 0-.091 0 28.276 28.276 0 0 0-10.516 2.683l-.433.208v22.142l1.012-.344c.888-.305 1.834-.58 2.813-.834a34.329 34.329 0 0 1 8.095-1.075v2.909c-.362.002-.713.012-1.065.03h-.084a32.36 32.36 0 0 0-6.228.956 31.635 31.635 0 0 0-7.42 2.892V23.112a29.728 29.728 0 0 1 7.785-3.166A29.793 29.793 0 0 1 80.892 19h.427c.511.013 1.01.036 1.478.071 1.233.087 2.456.282 3.655.582v2.864a22.638 22.638 0 0 0-3.541-.534l-.073-.006a8.726 8.726 0 0 0-.724-.043Zm5.039 2.927c.635.049 1.292.072 1.958.072a31.468 31.468 0 0 0 7.713-.99 31.767 31.767 0 0 0 7.417-2.893v27.89a29.809 29.809 0 0 1-7.786 3.166 29.943 29.943 0 0 1-7.337.944 22.405 22.405 0 0 1-5.565-.656V24.322c.43.1.873.191 1.323.267.739.125 1.518.216 2.277.272Zm14.194.216-1.012.341c-.93.313-1.87.593-2.813.842a34.263 34.263 0 0 1-8.406 1.078c-.66 0-1.267-.018-1.854-.056l-.807-.053V50.006l.693.06c.642.057 1.305.085 1.973.085a26.884 26.884 0 0 0 6.62-.857 27.746 27.746 0 0 0 5.173-1.86l.433-.208V25.078Z" clip-rule="evenodd"/><path d="M67.737 61.212a1.491 1.491 0 0 0-1.126-.455 1.672 1.672 0 0 0-.65.122 1.464 1.464 0 0 0-.832.842c-.08.2-.119.413-.116.628v3.794c-.01.267.042.533.149.778.09.195.219.368.38.509.151.127.329.22.52.27.185.051.376.078.567.078.211.002.42-.043.612-.132a1.6 1.6 0 0 0 .96-1.465v-.424h-.993v.338a.88.88 0 0 1-.058.338.608.608 0 0 1-.144.214.697.697 0 0 1-.415.145.503.503 0 0 1-.465-.204.898.898 0 0 1-.132-.508v-3.538c-.006-.196.036-.39.122-.567a.507.507 0 0 1 .485-.229.527.527 0 0 1 .443.214.806.806 0 0 1 .164.509v.328h.982v-.387a1.79 1.79 0 0 0-.121-.664 1.56 1.56 0 0 0-.332-.534ZM73.629 61.17a1.765 1.765 0 0 0-1.128-.418c-.202 0-.403.037-.592.107A1.56 1.56 0 0 0 71 61.7c-.1.231-.15.482-.145.735v3.638c-.006.256.043.51.145.746.09.195.22.369.384.508.152.14.33.25.524.32.19.07.39.106.592.107a1.714 1.714 0 0 0 1.128-.427c.158-.142.285-.315.374-.508.102-.235.151-.49.144-.746v-3.639a1.77 1.77 0 0 0-.144-.734 1.641 1.641 0 0 0-.374-.532Zm-.463 4.904a.656.656 0 0 1-.197.527.727.727 0 0 1-.934 0 .65.65 0 0 1-.197-.527v-3.639a.653.653 0 0 1 .197-.526.726.726 0 0 1 .934 0 .652.652 0 0 1 .197.526v3.64ZM81.367 67.7v-6.89h-.953l-1.253 3.647h-.017l-1.263-3.646h-.943v6.888h.984v-4.19h.017l.964 2.962h.491l.971-2.962h.018v4.19h.984ZM86.958 61.294c-.151-.17-.343-.3-.556-.377a2.184 2.184 0 0 0-.714-.107h-1.462v6.89h.981v-2.691h.506c.307.014.611-.051.886-.188a1.43 1.43 0 0 0 .539-.527c.113-.183.19-.387.225-.6a4.9 4.9 0 0 0 .053-.783c.01-.33-.023-.662-.096-.984a1.466 1.466 0 0 0-.362-.633Zm-.506 2.1a.867.867 0 0 1-.091.359.552.552 0 0 1-.253.241 1.006 1.006 0 0 1-.463.087h-.448v-2.342h.506a.942.942 0 0 1 .443.086.556.556 0 0 1 .23.254c.054.121.083.252.086.384v.458c0 .16.01.326 0 .473h-.01ZM91.608 60.81h-.805l-1.518 6.89h.982l.288-1.48h1.338l.289 1.48h.981l-1.555-6.89Zm-.906 4.471.483-2.497h.018l.48 2.497h-.981ZM97.95 64.96h-.018l-1.482-4.15h-.944v6.89h.981v-4.143h.02l1.5 4.142h.924v-6.888h-.981v4.15ZM103.948 60.81l-.79 2.74h-.02l-.789-2.74h-1.04l1.348 3.978v2.911h.982v-2.911l1.348-3.977h-1.039ZM65 69.644h.473v1.328h.321v-1.328h.47v-.272H65v.272ZM68.977 69.372l-.62 1.6h.341l.132-.364h.638l.136.364h.35l-.636-1.6h-.341Zm-.05.967.217-.593.217.593h-.435ZM72.908 70.382h.37v.206a.613.613 0 0 1-.38.135.404.404 0 0 1-.34-.153.67.67 0 0 1-.118-.417c0-.356.154-.534.46-.534a.337.337 0 0 1 .362.255l.316-.061c-.068-.313-.293-.47-.678-.47a.804.804 0 0 0-.559.205.78.78 0 0 0-.23.615.872.872 0 0 0 .205.6.776.776 0 0 0 .607.234.96.96 0 0 0 .678-.254v-.63h-.693v.27ZM76.923 69.372h-.324v1.6h1.12V70.7h-.796v-1.328ZM80.317 69.372h-.323v1.6h.323v-1.6ZM83.636 70.44l-.655-1.068h-.313v1.6h.3v-1.045l.643 1.045h.322v-1.6h-.297v1.069ZM86.637 70.267h.797v-.272h-.797v-.35h.857v-.273h-1.181v1.6h1.214V70.7h-.89v-.433ZM93.912 70.003h-.63v-.63h-.32v1.599h.32v-.7h.63v.7h.322v-1.6h-.322v.631ZM96.93 70.267h.8v-.272h-.8v-.35h.86v-.273H96.61v1.6h1.212V70.7h-.89v-.433ZM101.023 70.268c.279-.044.42-.191.42-.445a.38.38 0 0 0-.157-.356.903.903 0 0 0-.468-.094h-.678v1.599h.322v-.669h.063a.433.433 0 0 1 .2.036c.047.029.086.069.114.117l.349.508h.384l-.195-.312a1.11 1.11 0 0 0-.354-.384Zm-.324-.222h-.237v-.401h.253a.838.838 0 0 1 .326.038.212.212 0 0 1 .046.255.213.213 0 0 1-.061.07.915.915 0 0 1-.327.038ZM104.11 70.267h.796v-.272h-.796v-.35h.86v-.273h-1.184v1.6H105V70.7h-.89v-.433Z"/></g></svg>
